automatic/svg/favorites.svg

<?xml version="1.0" encoding="UTF-8" standalone="no"?>
<svg
   xmlns:dc="http://purl.org/dc/elements/1.1/"
   xmlns:cc="http://creativecommons.org/ns#"
   xmlns:rdf="http://www.w3.org/1999/02/22-rdf-syntax-ns#"
   xmlns:svg="http://www.w3.org/2000/svg"
   xmlns="http://www.w3.org/2000/svg"
   viewBox="0 0 320 320"
   height="320"
   width="320"
   xml:space="preserve"
   version="1.1"
   id="svg2"><metadata
     id="metadata8"><rdf:RDF><cc:Work
         rdf:about=""><dc:format>image/svg+xml</dc:format><dc:type
           rdf:resource="http://purl.org/dc/dcmitype/StillImage" /></cc:Work></rdf:RDF></metadata><defs
     id="defs6" /><g
     transform="matrix(1.25,0,0,-1.25,0,320)"
     id="g10"><g
       transform="translate(128,236.0186)"
       id="g12"><path
         id="path14"
         style="fill:#f2f2f2;fill-opacity:1;fill-rule:nonzero;stroke:none"
         d="m 0,0 -3.772,-10.688 -23.058,-65.331 -69.17,0 -11.403,0 8.904,-7.123 57.781,-46.225 -23.054,-65.32 -4.313,-12.221 10.45,7.664 57.635,42.265 57.635,-42.265 10.45,-7.664 -4.314,12.221 -23.053,65.32 57.781,46.225 8.904,7.123 -11.403,0 -69.17,0 L 3.771,-10.688 0,0 Z m 0,-12.019 24,-68 72,0 -60,-48 24,-68 -60,44 -60,-44 24,68 -60,48 72,0 24,68 z" /></g><path
       id="path16"
       style="fill:#f2f2f2;fill-opacity:1;fill-rule:nonzero;stroke:none"
       d="m 244,12 -232,0 0,232 232,0 0,-232 z m 0,236 -232,0 -4,0 0,-4 0,-232 0,-4 4,0 232,0 4,0 0,4 0,232 0,4 -4,0 z" /></g></svg>

<?xml version="1.0" encoding="UTF-8" standalone="no"?>
<svg
   xmlns:dc="http://purl.org/dc/elements/1.1/"
   xmlns:cc="http://creativecommons.org/ns#"
   xmlns:rdf="http://www.w3.org/1999/02/22-rdf-syntax-ns#"
   xmlns:svg="http://www.w3.org/2000/svg"
   xmlns="http://www.w3.org/2000/svg"
   viewBox="0 0 320 320"
   height="320"
   width="320"
   xml:space="preserve"
   id="svg2"
   version="1.1"><metadata
     id="metadata8"><rdf:RDF><cc:Work
         rdf:about=""><dc:format>image/svg+xml</dc:format><dc:type
           rdf:resource="http://purl.org/dc/dcmitype/StillImage" /></cc:Work></rdf:RDF></metadata><defs
     id="defs6" /><g
     transform="matrix(1.3333333,0,0,-1.3333333,-10.666666,330.66666)"
     id="g10"><g
       transform="translate(128,236.0186)"
       id="g12"><path
         id="path14"
         style="fill:#f2f2f2;fill-opacity:1;fill-rule:nonzero;stroke:none"
         d="M 0,0 -3.772,-10.688 -26.83,-76.019 H -96 -107.403 l 8.904,-7.123 57.781,-46.225 -23.054,-65.32 -4.313,-12.221 10.45,7.664 57.635,42.265 57.635,-42.265 10.45,-7.664 -4.314,12.221 -23.053,65.32 57.781,46.225 8.904,7.123 H 96 26.83 L 3.771,-10.688 Z m 0,-12.019 24,-68 h 72 l -60,-48 24,-68 -60,44 -60,-44 24,68 -60,48 h 72 z" /></g><path
       id="path16"
       style="fill:#f2f2f2;fill-opacity:1;fill-rule:nonzero;stroke:none"
       d="M 244,12 H 12 v 232 h 232 z m 0,236 H 12 8 V 244 12 8 h 4 232 4 v 4 232 4 z" /></g></svg>
